X:1
T:The Message of Gladness
T:The Message of Gladness
T:Charles Hutchinson Gabriel
T:Lizzie Douglas Foulks DeArmond, 1907
T:Public Domain Courtesy of the Cyber Hymnal™
T:Public Domain Courtesy of the Cyber Hymnal™
C:Charles Hutchinson Gabriel
Z:Public Domain
Z:Courtesy of the Cyber Hymnal™
%%score ( 1 2 ) ( 3 4 )
L:1/8
Q:1/4=97
M:4/4
K:Bb
V:1 treble 
V:2 treble 
V:3 bass 
V:4 bass 
V:1
 F>F | [DFd]2 A>B [DFc]2 B>D | [DG]2 G>G [DG]2 (F>G) | [DA]2 B>c [DFc]2 B>G | %4
w: 1.~There’s a|vi- sion of an- gels, a|stone rolled a- way, A *|song full of won- drous de-|
w: 2.~With the|spring- time of beau- ty our|Lord doth a- rise, In *|souls that have vic- to- ry|
w: 3.~We can|pass thro’ the sha- dows where|Je- sus has trod, His *|light shall il- lu- mine each|
 d4 ([CE]2 [CEc]2) c>d | [FAe]2 A>B [EFc]2 G>c | [CEd]2 F>G [CFA]2 [C=EB]2 | %7
w: light; There’s * a mes-|sage of glad- ness, a word|of good cheer, A glo-|
w: won; Blooms * the cross|with bright blos- soms, the flow-|ers of hope, For life|
w: way; Hail * to Him|who is reign- ing, by an-|gels a- dored, The Lord|
 [CFc]2 c>c [CFAc]2 [DFGB]2 | [CFA]2 [B,=EG]2 [A,CF]2 ||"^Refrain" [Fc]>[Fd] | %10
w: ry that gleams thro’ earth’s|drear night. *||
w: thro’ the Sav- ior just|be- gun. There’s|a mes-|
w: of our bless- èd East-|er day. *||
 [Fe]2 [EF]>[EG] F2 [FB]>[Fc] | [Fd]2 [DF]>[DG] [DF]2 [DB]2 | [EB]2 [_AB]>[AB] [GB][GB] [Fc]2 | %13
w: |||
w: sage of glad- ness, O tell|it a- gain, Till hearts|shall re- joic- ing- ly sing,|
w: |||
 [^Fd]6 [Fd]2 x3 | [Fe]2 [EF]>[EG] F2 [FB]>[Fc] | [Fd]2 [DF]>[EG] [DF]2 [FB]2 | %16
w: |||
w: In tune|to the mu- sic that ech-|oes a- far, “All praise|
w: |||
 [Gc]2 [Gd]>[Ge] [Fd][Fd] [Ec]2 | [DB]6 x3 |] %18
w: ||
w: to the con- quer- ing King!”||
w: ||
V:2
 x2 | x2 [DF]2 x/ [DF]2 x3/2 | x2 D2 x/ D2 x3/2 | x2 [DF]2 x/ [DF]2 x3/2 | ([CE]2 [FA]2) x6 | %5
 x2 [EF]2 x/ [CE]2 x3/2 | x2 [C=E]2 x4 | x2 [C=EB]2 x4 | x6 || x2 | x4 (EF) x2 | x8 | x8 | x11 | %14
 x4 (EF) x2 | x8 | x8 | x9 |] %18
V:3
 z2 | [B,,F,]2 [F,,F,]2 [B,,F,]2 [F,,F,]2 | [B,,F,]2 [F,,F,]2 [B,,F,]2 [F,,F,]2 | %3
 [B,,F,]2 [F,,F,]2 [B,,F,]2 [G,,F,]2 | ([C,G,]2 [F,,F,]2 [C,F,]2) [F,,F,]2 x2 | %5
 [C,F,]2 [F,,F,]2 [A,,F,]2 [F,,F,]2 | [C,F,]2 [F,,F,]2 F,2 [G,,G,]2 | %7
 [A,,A,]2 [G,,A,]2 [F,,F,]2 B,,2 | C,2 C,2 [F,,F,]2 || [F,A,]>[F,B,] | %10
 [F,C]2 [F,A,]>[F,A,] ([F,A,][E,C]) [D,B,]>[F,A,] | [B,,B,]2 [B,,B,]>[B,,B,] [B,,B,]2 [_A,B,]2 | %12
 [G,B,]2 [F,D]>[F,D] [E,E][E,E] (B,G,) | A,6 (z D,2) [D,A,]2 | %14
 [C,A,]2 [F,A,]>[F,A,] ([F,A,][E,C]) [D,B,]>[F,A,] | [B,,B,]2 [B,,B,]>[B,,B,] [B,,B,]2 [D,B,]2 | %16
 [E,B,]2 [E,B,]>[E,B,] [F,B,][F,B,] [F,A,]2 | (z B,,2) x6 |] %18
V:4
 x2 | x8 | x8 | x8 | x10 | x8 | x8 | x8 | x6 || x2 | x8 | x8 | x6 E,2 | D,2 ^F, A,2 x6 | x8 | x8 | %16
 x8 | [B,,B,]6 G,F,E, |] %18

